ZUCCAL
CUT["Der Blick"
    MEIN SCHAZZERL HAD BRAUNI AUGEN]
REG[Europa, Mitteleuropa, Oesterreich]
KEY[Z1239  08  G 3/4]
MEL[5_  6#74_2_  7+13_1_
    34-7_-5_  1_
    3_5_  6#74_2_  7+1
    3_1_  34-7_-5_  1__ //] >>
FCT[Liebes - Lied]
